X:1
T:Cor mio
T:Cor mio
T:Giovanni Ghizzolo
C:Giovanni Ghizzolo
%%score [ 1 2 ] { 3 | 4 }
L:1/8
Q:1/4=120
M:4/4
K:F
V:1 treble nm="Soprano" snm="S"
V:2 bass nm="Bass" snm="B"
V:3 treble nm="BC" snm="BC"
V:4 bass 
V:1
"^Source: Madrigali et Arie---Libro secondo---Venetia---A.Raverij.1609.""^Editor: André Vierendeels (16/11/08)\nContinuo: André Vierendeels" z2 d2 A4 | %1
w: Cor mio|
 z2 c4 FF | G4"^MADRIGALE" G4 | z4 z ABc | dDEF (G4 | G2) A2 A4 |[M:2/4] G4 :: z2 B2 | %8
w: men- tre vi|mi- ro|vi- si- bil-|men- te mi trans- for-|* mo'in vo-|i|e|
[M:4/4] c2 d2 _e3 e | d4 c4 | z2 cA d2 BG | c4 d4- | d2 dc c4 |[M:2/4] B4 :: z4 |[M:4/4] d6 G2 | %16
w: tras- for- ma- to|po- i|in un so- lo- so-|spir l'a-|* ni- ma spi-|ro.||0 bel-|
 B3 A c2 c2- | c2 =B2 c4- | c4 z4 | G6 D2 | F3 E G2 G2- | G2 ^F2 G4 | G2 GG G2 A2 | B4 AcAA | %24
w: lez- za vi- ta-|* * le,|_|o bel-|lez- za mor- ta-|* * le|poi che si tos- to'un|co- re per te ri-|
 d3 c BA G2- | G2 A2 A4- | A4 GGEE | A3 G FE D2- | D2 E2 E4- | E4 D4- |[M:2/4] D4 :| z4 |] %32
w: na- sc'e per- te na-|* to mo-|* re per te ri-|na- sc'e per te na-|* to mo-|* re.|_||
V:2
 z4 z2 D,2 | A,,2 A,,2 B,,2 D,2 | C,4 C,E,F,G, | A,A,,B,,C, D,4 | =B,,8 | D,4 D,4 |[M:2/4] G,,4 :: %7
w: Cor|mio men- tre vi|mi- ro vi- si- bil-|men- te mi trans- for-|mo'in-|vo- *|i|
 z2 G,2 |[M:4/4] _E,2 D,2 C,3 C, | B,,C,D,B,, F,4 | F,,4 F,D, G,2 | _E,C, F,4 G,2- | %12
w: e|tras- for- ma- t|po- * * * *|i in un so-|lo so- spir l'a-|
"^b" G,2 F,E, F,4 |[M:2/4] B,,4 :: B,4- |[M:4/4] B,4 D,2 _E,2- | E,D, F,2 _E,3 F, | G,4 C,4- | %18
w: * ni- ma- spi-|ro.|0|_ bel- lez-|* za vi- ta- *|* le,|
 C,4 C,4- | C,4 G,,2 B,,2- | B,,A,, C,2 =B,,3 C, | D,4 G,,4 | C,2 C,C, C,2 A,,2 | G,,4 F,,2 z F, | %24
w: _ o|_ bel- lez-|* za mor- ta- *|* le|po che si tos- to'un|co- re per|
 D,D, G,2- G,F,_E,D, | C,6 D,2 | D,4"^Note: original keys: Ut 1st, Fa 4rth" G,,2 z C, | %27
w: te ri- na- * sc'e per te|na- to|mo- re per|
 A,,A,, D,3 C,B,,A,, | G,,6 A,,2 | A,,4 D,4- |[M:2/4] D,4 :| z4 |] %32
w: te ri- na- sc'e per te|na- to|mo- re.|_||
V:3
 [DFAd]8 | [EAc]4 [FB]4 | [EGc]8 | [EAc]4 [FAd]4 | [D-Gd-]8 | [DGd]4 [^FAd]4 |[M:2/4] [DG=B]4 :: %7
 [GB]4 |[M:4/4] [Gc]8 | [DFd]4 [F-Ac-]4 | [FAc]4 [FAd]2 [Bd]2 | [GB]2 [FAc]4 [Bd]2- | %12
 [Bd]4 [FAc]4 |[M:2/4] [DFB]4 :: [DFB]4 |[M:4/4] [Fd]4 [DFB]2 [GB]2- | [GB]2 [FAc]2 [_EGc]4 | %17
 [DG]4 [EGc]4- | [EGc]4 [EGc]4- | [EGc]4 [DG]4 | [DF]2 [EG]2 [DG]4 | [DA]4 [DG=B]4 | %22
 [EGc]4 [EG]2 [EA]2 | [DGB]4 [FAc]4 | [DFA]2 [GB]4 [Gc]2- | [Gc]2 [Ac]2 [EA]2 [GB]2 | %26
 [^FA]4 [DG=B]2 [CEG]2 | [EA]2 [FA]2 [DFA]4 | [DB]2 [EGB]2 [GB]2 [Ec]2 | [FAd]2 [E^c]2 [D^FA]4- | %30
[M:2/4] [DFA]4 :| z4 |] %32
V:4
 z4 z2 D,2 | A,,4 B,,2 D,2 | C,4 C,E,F,G, | A,A,,B,,C, D,4 | =B,,8 |"^4" D,4"^3" D,4 | %6
[M:2/4] G,,4 :: z2 G,2 |[M:4/4] _E,2 D,2 C,4 | B,,C,D,B,, F,4 | F,,4 F,D, G,2 | _E,C, F,4 G,2- | %12
"^b" G,2 F,E, F,4 |[M:2/4] B,,4 :: B,4 |[M:4/4] B,4 D,2 _E,2- | E,D, F,2 _E,3 F, | G,4 C,4- | %18
 C,4 C,4- | C,4 G,,2 B,,2- | B,,A,, C,2 =B,,3 C, | D,4 G,,4 | C,4 C,2 A,,2 | G,,4 F,,2 z F, | %24
 D,2 G,2- G,F,_E,D, | C,6 D,2 | D,4 G,,2 z C, | A,,2 D,2- D,C,B,,A,, | G,,6 A,,2 | A,,4 D,4- | %30
[M:2/4] D,4 :| z4 |] %32

